X:1
T:Title
%%score { ( 1 3 ) | ( 2 4 ) }
L:1/8
Q:1/4=100
M:4/4
K:Eb
V:1 treble nm="Grand Piano"
V:3 treble 
V:2 bass 
V:4 bass 
V:1
 [Ec]>[Ec] [Ec]>[D=B] [F_d]2 [Ec]2 | [Fc]>[FB] [FB]>F [FB]4 | E>B B>=A c2 B2 | %3
w: M.~Pauline~Gilmour * * * * *|||
 [CB]>[CA] [=B,G]>[B,F] [CE]4 | [Ec]>[Ec] [Ec]>[D=B] [F_d]2 [Ec]2 | [Fc]>[FB] [FB]>[A,F] [_DFB]4 | %6
w: |||
 [B,EG]>[CEA] [EGB]>[EAc] [EGB]>[B,EG] [B,FA]>[EGB] |[M:7/8] [EAc]2 [Ad]2 [Ge]3 |[M:1/8] [_DE] | %9
w: |||
[M:4/4] [CE]2 [CF]>[CG] [CA]>[CG] [CA]>[_DB] | [Ec]4 z4 | E2 F>G A>A G>A | [Dc]4 z4 | %13
w: ||||
 [=Ec]>[Ec] [Ec]>[EG] [GB]2 [FA]2 | [FA]>[FA] [FB]>[Fc] [Fe]2 [F_d]2 | %15
w: ||
 [Ad]2 [Ad]>[Ad] [Ae]>[CAc] [CA]>[FAc] | [_DGB]3 [CEA] [CEA]4 |] %17
w: ||
V:2
 [A,,A,]>[A,,A,] [A,,A,]>[A,,A,] [A,,A,]2 [A,,A,]2 | [_D,A,]>[D,A,] [D,A,]>[D,A,] [D,A,]4 | %2
 [E,G,_D]>[E,G,D] [E,G,D]>[E,_G,D] [E,=G,D]2 [E,G,D]2 | [A,,E,]>[A,,E,] [A,,D,]>[A,,D,] [A,,E,]4 | %4
 [A,,A,]>[A,,A,] [A,,A,]>[A,,A,] [A,,A,]2 [A,,A,]2 | [_D,A,]>[D,A,] [D,A,]>D, D,4 | %6
 E,>E, E,>E, E,>E, E,>E, |[M:7/8] A,2 [F,B,]2 [E,B,]3 |[M:1/8] [E,G,] | %9
[M:4/4] [A,,A,]2 [A,,E,]2 [A,,E,]2 [A,,E,]>[A,,E,] | [A,,A,]>A,, A,,>[A,,A,] [A,,A,]3 [A,,A,] | %11
 [E,G,_D]2 [E,A,D]>[E,B,D] C>C C>C | [B,,A,]>B,, B,,>[B,,A,] [E,G,]4 | %13
 [C,G,]>[C,G,] [C,G,]>[C,C] [F,C]2 [F,C]2 | [_D,_D]>[D,D] [D,D]>[C,=A,] [=A,,C]2 [B,,B,]2 | %15
 [=E,=B,]2 [E,B,]>[E,B,] [_E,C]>E, F,>B,, | E,3 E, A,,4 |] %17
V:3
 x8 | x8 | x8 | x8 | x8 | x8 | x8 |[M:7/8] x7 |[M:1/8] x |[M:4/4] x8 | %10
 z z/ A,/ A,>[D=B] [Ec]3 [CE] | x8 | z z/ A,/ A,>[DB] [EB]4 | x8 | x8 | x8 | x8 |] %17
V:4
 x8 | x8 | x8 | x8 | x8 | x8 | x8 |[M:7/8] x7 |[M:1/8] x |[M:4/4] x8 | x8 | z4 [F,A,]2 [F,A,]2 | %12
 x8 | x8 | x8 | x8 | x8 |] %17

